X:179
T: Muede kehrt ein Wandersmann zurueck
N: D1010
O: Europa, Mitteleuropa, Deutschland, Rheinland Pfalz, Eifel, Kerpen
N: DVA-Signatur A 52 662
R: Liebes - Lied
M: 4/4
L: 1/8
K: G
DG | B3AGFGB | D4z2
DF | A3GFAed | B4z2
GA | B3dcBAG | E4z
GFG | D3GFAed | B4z2
GA | Bdd2cBAG | G2e2z
edc | B3GFGcF | G4z2

@@@ Tune index: 2701
